assets/static/img/tariffs/3.svg

<svg preserveAspectRatio="xMidYMid meet" viewBox="0 0 135 131" fill="none" xmlns="http://www.w3.org/2000/svg" id="self">
	<path d="M60.999 40H50.879C48.2717 40.0002 45.7675 41.0187 43.9002 42.8385C42.0329 44.6583 40.9503 47.1355 40.883 49.742L39.999 84M85.999 40H96.119C98.7264 40.0002 101.231 41.0187 103.098 42.8385C104.965 44.6583 106.048 47.1355 106.115 49.742L106.999 84" stroke="var(--main-color, #377CB5)" stroke-width="1.5" stroke-linecap="round" />
	<path d="M51.999 98.25C58.7645 98.25 64.249 92.7655 64.249 86C64.249 79.2345 58.7645 73.75 51.999 73.75C45.2335 73.75 39.749 79.2345 39.749 86C39.749 92.7655 45.2335 98.25 51.999 98.25Z" stroke="var(--main-color, #377CB5)" stroke-width="1.5" />
	<path d="M94.999 98.25C101.765 98.25 107.249 92.7655 107.249 86C107.249 79.2345 101.765 73.75 94.999 73.75C88.2335 73.75 82.749 79.2345 82.749 86C82.749 92.7655 88.2335 98.25 94.999 98.25Z" stroke="var(--main-color, #377CB5)" stroke-width="1.5" />
	<path d="M63.999 86H82.999" stroke="var(--main-color, #377CB5)" stroke-width="1.5" />
	<path d="M44.4991 89C44.1661 87.833 43.8991 84.9 45.4991 82.5C47.0991 80.1 48.8321 79.5 49.4991 79.5M87.4991 89C87.1661 87.833 86.8991 84.9 88.4991 82.5C90.0991 80.1 91.8321 79.5 92.4991 79.5" stroke="var(--accent-color, #F58220)" stroke-width="1.5" stroke-linecap="round" />
</svg>

<svg xmlns="http://www.w3.org/2000/svg" id="self" fill="none" preserveAspectRatio="xMidYMid meet" viewBox="0 0 135 131"><path stroke="var(--main-color, #377CB5)" stroke-linecap="round" stroke-width="1.5" d="M60.999 40h-10.12a10 10 0 0 0-9.996 9.742L39.999 84m46-44h10.12a10 10 0 0 1 9.996 9.742L106.999 84"/><path stroke="var(--main-color, #377CB5)" stroke-width="1.5" d="M51.999 98.25c6.765 0 12.25-5.484 12.25-12.25s-5.484-12.25-12.25-12.25-12.25 5.484-12.25 12.25 5.484 12.25 12.25 12.25ZM94.999 98.25c6.766 0 12.25-5.484 12.25-12.25s-5.484-12.25-12.25-12.25c-6.765 0-12.25 5.484-12.25 12.25s5.485 12.25 12.25 12.25ZM63.999 86h19"/><path stroke="var(--accent-color, #F58220)" stroke-linecap="round" stroke-width="1.5" d="M44.5 89c-.334-1.167-.6-4.1 1-6.5s3.332-3 4-3m38 9.5c-.334-1.167-.6-4.1 1-6.5s3.332-3 4-3"/></svg>
